svg/icon.svg

<?xml version="1.0" encoding="UTF-8" standalone="no"?>
<svg
   xmlns:dc="http://purl.org/dc/elements/1.1/"
   xmlns:cc="http://creativecommons.org/ns#"
   xmlns:rdf="http://www.w3.org/1999/02/22-rdf-syntax-ns#"
   xmlns:svg="http://www.w3.org/2000/svg"
   xmlns="http://www.w3.org/2000/svg"
   xmlns:sodipodi="http://sodipodi.sourceforge.net/DTD/sodipodi-0.dtd"
   xmlns:inkscape="http://www.inkscape.org/namespaces/inkscape"
   inkscape:export-ydpi="768.00006"
   inkscape:export-xdpi="768.00006"
   inkscape:export-filename="D:\Downloads\logo512.png"
   sodipodi:docname="04_hex2rgb.svg"
   inkscape:version="1.0.2 (e86c870879, 2021-01-15, custom)"
   id="svg8"
   version="1.1"
   viewBox="0 0 16.933333 16.933334"
   height="64"
   width="64">
  <defs
     id="defs2">
    <rect
       x="-0.76424362"
       y="0.68781926"
       width="17.373805"
       height="16.405763"
       id="rect1447" />
    <rect
       id="rect848"
       height="16.906861"
       width="16.906861"
       y="0.01323625"
       x="0.01323625" />
    <filter
       style="color-interpolation-filters:sRGB;"
       inkscape:label="Drop Shadow"
       id="filter1122">
      <feFlood
         flood-opacity="1"
         flood-color="rgb(0,0,0)"
         result="flood"
         id="feFlood1112" />
      <feComposite
         in="flood"
         in2="SourceGraphic"
         operator="in"
         result="composite1"
         id="feComposite1114" />
      <feGaussianBlur
         in="composite1"
         stdDeviation="0.2"
         result="blur"
         id="feGaussianBlur1116" />
      <feOffset
         dx="0"
         dy="0"
         result="offset"
         id="feOffset1118" />
      <feComposite
         in="SourceGraphic"
         in2="offset"
         operator="over"
         result="fbSourceGraphic"
         id="feComposite1120" />
      <feColorMatrix
         result="fbSourceGraphicAlpha"
         in="fbSourceGraphic"
         values="0 0 0 -1 0 0 0 0 -1 0 0 0 0 -1 0 0 0 0 1 0"
         id="feColorMatrix1304" />
      <feFlood
         id="feFlood1306"
         flood-opacity="0.6"
         flood-color="rgb(0,0,0)"
         result="flood"
         in="fbSourceGraphic" />
      <feComposite
         in2="fbSourceGraphic"
         id="feComposite1308"
         in="flood"
         operator="in"
         result="composite1" />
      <feGaussianBlur
         id="feGaussianBlur1310"
         in="composite1"
         stdDeviation="0.2"
         result="blur" />
      <feOffset
         id="feOffset1312"
         dx="0"
         dy="0"
         result="offset" />
      <feComposite
         in2="offset"
         id="feComposite1314"
         in="fbSourceGraphic"
         operator="over"
         result="composite2" />
    </filter>
    <filter
       style="color-interpolation-filters:sRGB;"
       inkscape:label="Drop Shadow"
       id="filter1122-7">
      <feFlood
         flood-opacity="1"
         flood-color="rgb(0,0,0)"
         result="flood"
         id="feFlood1112-3" />
      <feComposite
         in="flood"
         in2="SourceGraphic"
         operator="in"
         result="composite1"
         id="feComposite1114-9" />
      <feGaussianBlur
         in="composite1"
         stdDeviation="0.2"
         result="blur"
         id="feGaussianBlur1116-3" />
      <feOffset
         dx="0"
         dy="0"
         result="offset"
         id="feOffset1118-1" />
      <feComposite
         in="SourceGraphic"
         in2="offset"
         operator="over"
         result="fbSourceGraphic"
         id="feComposite1120-1" />
      <feColorMatrix
         result="fbSourceGraphicAlpha"
         in="fbSourceGraphic"
         values="0 0 0 -1 0 0 0 0 -1 0 0 0 0 -1 0 0 0 0 1 0"
         id="feColorMatrix1316" />
      <feFlood
         id="feFlood1318"
         flood-opacity="0.6"
         flood-color="rgb(0,0,0)"
         result="flood"
         in="fbSourceGraphic" />
      <feComposite
         in2="fbSourceGraphic"
         id="feComposite1320"
         in="flood"
         operator="in"
         result="composite1" />
      <feGaussianBlur
         id="feGaussianBlur1322"
         in="composite1"
         stdDeviation="0.2"
         result="blur" />
      <feOffset
         id="feOffset1324"
         dx="0"
         dy="0"
         result="offset" />
      <feComposite
         in2="offset"
         id="feComposite1326"
         in="fbSourceGraphic"
         operator="over"
         result="composite2" />
    </filter>
    <filter
       style="color-interpolation-filters:sRGB;"
       inkscape:label="Drop Shadow"
       id="filter1122-8">
      <feFlood
         flood-opacity="1"
         flood-color="rgb(0,0,0)"
         result="flood"
         id="feFlood1112-8" />
      <feComposite
         in="flood"
         in2="SourceGraphic"
         operator="in"
         result="composite1"
         id="feComposite1114-5" />
      <feGaussianBlur
         in="composite1"
         stdDeviation="0.2"
         result="blur"
         id="feGaussianBlur1116-8" />
      <feOffset
         dx="0"
         dy="0"
         result="offset"
         id="feOffset1118-8" />
      <feComposite
         in="SourceGraphic"
         in2="offset"
         operator="over"
         result="fbSourceGraphic"
         id="feComposite1120-4" />
      <feColorMatrix
         result="fbSourceGraphicAlpha"
         in="fbSourceGraphic"
         values="0 0 0 -1 0 0 0 0 -1 0 0 0 0 -1 0 0 0 0 1 0"
         id="feColorMatrix1340" />
      <feFlood
         id="feFlood1342"
         flood-opacity="0.6"
         flood-color="rgb(0,0,0)"
         result="flood"
         in="fbSourceGraphic" />
      <feComposite
         in2="fbSourceGraphic"
         id="feComposite1344"
         in="flood"
         operator="in"
         result="composite1" />
      <feGaussianBlur
         id="feGaussianBlur1346"
         in="composite1"
         stdDeviation="0.2"
         result="blur" />
      <feOffset
         id="feOffset1348"
         dx="0"
         dy="0"
         result="offset" />
      <feComposite
         in2="offset"
         id="feComposite1350"
         in="fbSourceGraphic"
         operator="over"
         result="composite2" />
    </filter>
    <filter
       style="color-interpolation-filters:sRGB"
       inkscape:label="Drop Shadow"
       id="filter1122-2">
      <feFlood
         flood-opacity="1"
         flood-color="rgb(0,0,0)"
         result="flood"
         id="feFlood1112-7" />
      <feComposite
         in="flood"
         in2="SourceGraphic"
         operator="in"
         result="composite1"
         id="feComposite1114-7" />
      <feGaussianBlur
         in="composite1"
         stdDeviation="0.2"
         result="blur"
         id="feGaussianBlur1116-5" />
      <feOffset
         dx="0"
         dy="0"
         result="offset"
         id="feOffset1118-3" />
      <feComposite
         in="SourceGraphic"
         in2="offset"
         operator="over"
         result="composite2"
         id="feComposite1120-6" />
    </filter>
    <filter
       style="color-interpolation-filters:sRGB;"
       inkscape:label="Drop Shadow"
       id="filter1122-9">
      <feFlood
         flood-opacity="1"
         flood-color="rgb(0,0,0)"
         result="flood"
         id="feFlood1112-1" />
      <feComposite
         in="flood"
         in2="SourceGraphic"
         operator="in"
         result="composite1"
         id="feComposite1114-3" />
      <feGaussianBlur
         in="composite1"
         stdDeviation="0.2"
         result="blur"
         id="feGaussianBlur1116-7" />
      <feOffset
         dx="0"
         dy="0"
         result="offset"
         id="feOffset1118-5" />
      <feComposite
         in="SourceGraphic"
         in2="offset"
         operator="over"
         result="fbSourceGraphic"
         id="feComposite1120-68" />
      <feColorMatrix
         result="fbSourceGraphicAlpha"
         in="fbSourceGraphic"
         values="0 0 0 -1 0 0 0 0 -1 0 0 0 0 -1 0 0 0 0 1 0"
         id="feColorMatrix1328" />
      <feFlood
         id="feFlood1330"
         flood-opacity="0.6"
         flood-color="rgb(0,0,0)"
         result="flood"
         in="fbSourceGraphic" />
      <feComposite
         in2="fbSourceGraphic"
         id="feComposite1332"
         in="flood"
         operator="in"
         result="composite1" />
      <feGaussianBlur
         id="feGaussianBlur1334"
         in="composite1"
         stdDeviation="0.2"
         result="blur" />
      <feOffset
         id="feOffset1336"
         dx="0"
         dy="0"
         result="offset" />
      <feComposite
         in2="offset"
         id="feComposite1338"
         in="fbSourceGraphic"
         operator="over"
         result="composite2" />
    </filter>
    <filter
       style="color-interpolation-filters:sRGB;"
       inkscape:label="Drop Shadow"
       id="filter1122-5">
      <feFlood
         flood-opacity="1"
         flood-color="rgb(0,0,0)"
         result="flood"
         id="feFlood1112-6" />
      <feComposite
         in="flood"
         in2="SourceGraphic"
         operator="in"
         result="composite1"
         id="feComposite1114-0" />
      <feGaussianBlur
         in="composite1"
         stdDeviation="0.2"
         result="blur"
         id="feGaussianBlur1116-9" />
      <feOffset
         dx="0"
         dy="0"
         result="offset"
         id="feOffset1118-2" />
      <feComposite
         in="SourceGraphic"
         in2="offset"
         operator="over"
         result="fbSourceGraphic"
         id="feComposite1120-8" />
      <feColorMatrix
         result="fbSourceGraphicAlpha"
         in="fbSourceGraphic"
         values="0 0 0 -1 0 0 0 0 -1 0 0 0 0 -1 0 0 0 0 1 0"
         id="feColorMatrix1352" />
      <feFlood
         id="feFlood1354"
         flood-opacity="0.6"
         flood-color="rgb(0,0,0)"
         result="flood"
         in="fbSourceGraphic" />
      <feComposite
         in2="fbSourceGraphic"
         id="feComposite1356"
         in="flood"
         operator="in"
         result="composite1" />
      <feGaussianBlur
         id="feGaussianBlur1358"
         in="composite1"
         stdDeviation="0.2"
         result="blur" />
      <feOffset
         id="feOffset1360"
         dx="0"
         dy="0"
         result="offset" />
      <feComposite
         in2="offset"
         id="feComposite1362"
         in="fbSourceGraphic"
         operator="over"
         result="composite2" />
    </filter>
  </defs>
  <sodipodi:namedview
     inkscape:snap-global="false"
     inkscape:window-maximized="1"
     inkscape:window-y="-8"
     inkscape:window-x="-8"
     inkscape:window-height="1017"
     inkscape:window-width="1920"
     units="px"
     showgrid="false"
     inkscape:document-rotation="0"
     inkscape:current-layer="layer1"
     inkscape:document-units="mm"
     inkscape:cy="37.611882"
     inkscape:cx="60.904179"
     inkscape:zoom="7.3440718"
     inkscape:pageshadow="2"
     inkscape:pageopacity="0.0"
     borderopacity="1.0"
     bordercolor="#666666"
     pagecolor="#ffffff"
     id="base" />
  <metadata
     id="metadata5">
    <rdf:RDF>
      <cc:Work
         rdf:about="">
        <dc:format>image/svg+xml</dc:format>
        <dc:type
           rdf:resource="http://purl.org/dc/dcmitype/StillImage" />
        <dc:title></dc:title>
      </cc:Work>
    </rdf:RDF>
  </metadata>
  <g
     id="layer1"
     inkscape:groupmode="layer"
     inkscape:label="Layer 1">
    <rect
       style="fill:#34495e;fill-opacity:1;stroke:none;stroke-width:0.420686;stroke-linecap:round;stroke-linejoin:round;stroke-miterlimit:4;stroke-dasharray:none;stroke-opacity:1"
       id="rect989-0-2-8"
       width="16.933332"
       height="16.933332"
       x="0"
       y="0"
       ry="3.1669273" />
    <path
       id="rect989-0-2"
       style="fill:#2183cd;fill-opacity:1;stroke:none;stroke-width:1.58999;stroke-linecap:round;stroke-linejoin:round;stroke-miterlimit:4;stroke-dasharray:none;stroke-opacity:1"
       d="m 0,43.375 v 8.65625 C 0,58.662347 5.337653,64 11.96875,64 h 2.784641 l 4.310784,-20.625 z"
       transform="scale(0.26458333)"
       sodipodi:nodetypes="cssccc" />
    <path
       id="rect989-0"
       style="fill:#ffd306;fill-opacity:1;stroke:none;stroke-width:1.58999;stroke-linecap:round;stroke-linejoin:round;stroke-miterlimit:4;stroke-dasharray:none;stroke-opacity:1"
       d="M 45.638672 0.048828125 L 42.460938 21.615234 L 64 21.708984 L 64 11.96875 C 64 5.6616839 59.167949 0.53587033 52.990234 0.048828125 L 45.638672 0.048828125 z "
       transform="scale(0.26458333)" />
    <path
       id="rect989"
       style="fill:#e94b35;fill-opacity:1;stroke:none;stroke-width:1.58999;stroke-linecap:round;stroke-linejoin:round;stroke-miterlimit:4;stroke-dasharray:none;stroke-opacity:1"
       d="M 38.031702,43.374786 34.016031,64.023362 52.03125,64 C 58.662342,63.991401 64,58.662347 64,52.03125 v -8.945312 z"
       transform="scale(0.26458333)"
       sodipodi:nodetypes="ccsscc" />
    <rect
       style="fill:#9921ff;fill-opacity:1;stroke:none;stroke-width:0.267419;stroke-linecap:round;stroke-linejoin:round;stroke-miterlimit:4;stroke-dasharray:none;stroke-opacity:1"
       id="rect1451"
       width="5.6554027"
       height="5.7318273"
       x="0"
       y="5.7827768" />
    <rect
       style="fill:#00ab1a;fill-opacity:1;stroke:none;stroke-width:0.281503;stroke-linecap:round;stroke-linejoin:round;stroke-miterlimit:4;stroke-dasharray:none;stroke-opacity:1"
       id="rect1451-8"
       width="6.2667975"
       height="5.7318273"
       x="10.69941"
       y="5.693615" />
    <rect
       style="fill:#ffffff;fill-opacity:1;stroke:none;stroke-width:0.25885;stroke-linecap:round;stroke-linejoin:round;stroke-miterlimit:4;stroke-dasharray:none;stroke-opacity:1"
       id="rect1451-8-0"
       width="5.2987552"
       height="5.7318273"
       x="5.3751807"
       y="5.6171913" />
    <path
       id="rect1451-8-0-4"
       style="fill:#ff008e;fill-opacity:1;stroke:none;stroke-width:0.267419;stroke-linecap:round;stroke-linejoin:round;stroke-miterlimit:4;stroke-dasharray:none;stroke-opacity:1"
       d="M 7.1526122,-0.03821241 H 12.527792 L 11.163761,5.6936148 H 5.9414301 Z"
       sodipodi:nodetypes="ccccc" />
    <path
       id="rect1451-8-0-4-5"
       style="fill:#ff6600;fill-opacity:1;stroke:none;stroke-width:0.267419;stroke-linecap:round;stroke-linejoin:round;stroke-miterlimit:4;stroke-dasharray:none;stroke-opacity:1"
       d="M 5.101891,11.208906 H 10.47707 L 9.11304,16.940733 H 3.890709 Z"
       sodipodi:nodetypes="ccccc" />
    <g
       aria-label="#"
       transform="matrix(2.0878009,0,0,2.0878009,2.5323932,-5.1357538)"
       id="text1445"
       style="font-style:normal;font-weight:normal;font-size:10.5833px;line-height:1.25;font-family:sans-serif;letter-spacing:0px;word-spacing:0px;white-space:pre;shape-inside:url(#rect1447);fill:#1a1a1a;fill-opacity:1;stroke:none">
      <path
         d="M 5.7556407,4.9772322 H 4.5279779 L 4.91956,2.8711556 H 4.2528122 L 3.8612301,4.9772322 H 2.0303192 L 2.4324846,2.8711556 H 1.7657367 L 1.3741547,4.9772322 H 0.14649189 L 0.0300756,5.5593137 H 1.2577384 L 0.86615627,7.6653903 H -0.36150649 L -0.47792278,8.2474718 H 0.74973997 L 0.35815789,10.342965 H 1.0143225 L 1.4059046,8.2474718 H 3.2473987 L 2.8558166,10.342965 H 3.5119812 L 3.9035633,8.2474718 H 5.131226 L 5.2476423,7.6653903 H 4.0093963 L 4.4115616,5.5593137 H 5.6392244 Z M 3.7553971,5.5593137 3.3532317,7.6653903 H 1.5223208 L 1.9244862,5.5593137 Z"
         style="font-style:normal;font-variant:normal;font-weight:normal;font-stretch:normal;font-family:'Alverata Irregular';-inkscape-font-specification:'Alverata Irregular';fill:#1a1a1a"
         id="path1525" />
    </g>
  </g>
</svg>

<svg width="64" height="64" version="1.1" viewBox="0 0 16.9 16.9" xmlns="http://www.w3.org/2000/svg">
 <g>
  <rect width="16.9" height="16.9" ry="3.17" fill="#34495e"/>
  <path transform="scale(.265)" d="m0 43.4v8.66c0 6.63 5.34 12 12 12h2.78l4.31-20.6z" fill="#2183cd"/>
  <path transform="scale(.265)" d="m45.6.0488-3.18 21.6 21.5.0938v-9.74c0-6.31-4.83-11.4-11-11.9h-7.35z" fill="#ffd306"/>
  <path transform="scale(.265)" d="m38 43.4-4.02 20.6 18-.0234c6.63-.0086 12-5.34 12-12v-8.95z" fill="#e94b35"/>
  <rect y="5.78" width="5.66" height="5.73" fill="#9921ff"/>
  <rect x="10.7" y="5.69" width="6.27" height="5.73" fill="#00ab1a"/>
  <rect x="5.38" y="5.62" width="5.3" height="5.73" fill="#fff"/>
  <path d="m7.15-.0382h5.38l-1.36 5.73h-5.22z" fill="#ff008e"/>
  <path d="m5.1 11.2h5.38l-1.36 5.73h-5.22z" fill="#f60"/>
  <g transform="matrix(2.09 0 0 2.09 2.53 -5.14)" fill="#1a1a1a" style="shape-inside:url(#rect1447);white-space:pre" aria-label="#">
   <path d="m5.76 4.98h-1.23l.392-2.11h-.667l-.392 2.11h-1.83l.402-2.11h-.667l-.392 2.11h-1.23l-.116.582h1.23l-.392 2.11h-1.23l-.116.582h1.23l-.392 2.1h.656l.392-2.1h1.84l-.392 2.1h.656l.392-2.1h1.23l.116-.582h-1.24l.402-2.11h1.23zm-2 .582-.402 2.11h-1.83l.402-2.11z" fill="#1a1a1a"/>
  </g>
 </g>
</svg>
